X:1
T:E  Major Samuel Holyoke, 1791
T:Joel Barlow, 1786 (Psalm 108)        86. 86. (C. M.) 
T:Burlington Soprano-Tenor-Bass transcribed from Harmonia Americana , 1791; Alto written by B. C. Johnston, 2016.
%%score [ ( 1 2 ) ( 3 4 ) ]
L:1/8
Q:1/4=110
M:4/4
K:Eb
V:1 treble nm="Soprano\nAlto" snm="S.\nA."
V:2 treble 
V:3 bass nm="Tenor\nBass" snm="T.\nB."
V:4 bass 
V:1
"^1. Awake, my soul, to sound his praise,  Awake my harp to sing:  Join  all  my  powers the song to raise,  And morning  incense bring.""^2. Among the people of his care,   And through the nations round;  Glad songs of praise will I prepare,  And there his name resound." B2 | %1
 e2 d2 c2 B2 | B2 =A2 B2 _A2 | G2 e2 d2 c2 | B4 z2 d2 | e2 d2 e2 B2 | c2 c2 B2 B2 | e3 A B2 TA2 | %8
 E8 |] %9
V:2
 E2 | B2 B2 A2 B2 | B2 =A2 B2 F2 | E2 c2 B2 A2 | G4 x2 F2 | G2 A2 G2 E2 | =A2 A2 B2 _A2 | %7
 G2 c2 G2 F2 | G8 |] %9
V:3
"^3. Be thou  ex –al –ted,      O  my God,    Above the  starry train;   Diffuse thy heavenly grace abroad,  And teach the world thy reign.""^4. So shall  thy chosen sons rejoice,  And throng thy courts above;  While sinners hear thy pardoning voice,  And taste redeeming love." G,2 | %1
 G,2 F,2 A,2 F,2 | G,2 F,2 F,2 F,2 | E,2 C2 B,2 A,2 | G,4 z2 B,2 | G,2 A,2 G,2 G,2 | %6
 =A,2 C2 B,2 _A,2 | G,2 C2 B,2 TA,2 | G,8 |] %9
V:4
 E,2 | E,2 B,,2 F,2 D,2 | E,2 F,2 B,,2 D,2 | E,2 C,2 G,2 A,2 | E,4 x2 F,2 | G,2 F,2 E,2 E,2 | %6
 =A,2 F,2 B,,2 D,2 | E,2 A,2 B,2 B,,2 | E,8 |] %9

